X: 1
T: Swannanoa Waltz
C: Rayna Gellert
R: waltz
Z: 2013 John Chambers <jc:trillian.mit.edu> 
S: http://www.fiddlehangout.com/myhangout/photos2.asp?id=959&photoID=1960&albumid=0
M: 3/4
L: 1/8
K: D
DE |:\
F2 F2 ED | B,2 B,2 B,A, | F3 F ED | A2 AF DE |\
F2 F2 ED | B,2 B,2 B,A, | E2 EF F{GF}E |1 D2 A,D A,D :|2 D2 DD Bd ||
|:\
d2 g2 fe | B4 {=cB}AB | d2 g2 fe | a2 af dB |\
d2 g2 fe | B4 {=cB}AB | d(g f)(d A)B |1 d3 B AB :|2 d4 |]
